usr/share/icons/biglinux-icons-material-dark/22/actions/snap-nodes-rotation-center.svg

<svg xmlns="http://www.w3.org/2000/svg" viewBox="0 0 22 22">
  <defs id="defs3051">
    <style type="text/css" id="current-color-scheme">
      .ColorScheme-Text {
        color:#dedede;
      }
      .ColorScheme-Highlight {
        color:#3daee9;
      }
      </style>
  </defs>
 <path 
     style="fill:currentColor;fill-opacity:1;stroke:none" 
     d="M 9.5996094 3.0507812 L 8.8925781 3.7578125 L 11.185547 6.0507812 L 8.9003906 6.0507812 L 8 6.0507812 L 8 7.0507812 L 8.9003906 7.0507812 L 11.185547 7.0507812 L 8.8925781 9.34375 L 9.5996094 10.050781 L 12.892578 6.7578125 L 13.099609 6.5507812 L 12.892578 6.34375 L 9.5996094 3.0507812 z M 6.5 6.0507812 C 6.223 6.0507812 6 6.2737812 6 6.5507812 C 6 6.8277813 6.223 7.0507814 6.5 7.0507812 C 6.777 7.0507812 7 6.8277813 7 6.5507812 C 7 6.2737812 6.777 6.0507814 6.5 6.0507812 z M 3.5 8.0507812 C 3.223 8.0507812 3 8.2737814 3 8.5507812 C 3 8.8277814 3.223 9.0507812 3.5 9.0507812 C 3.777 9.0507812 4 8.8277813 4 8.5507812 C 4 8.2737814 3.777 8.0507812 3.5 8.0507812 z M 2.5 11.050781 C 2.223 11.050781 2 11.273781 2 11.550781 C 2 11.827781 2.223 12.050781 2.5 12.050781 C 2.777 12.050781 3 11.827781 3 11.550781 C 3 11.273781 2.777 11.050781 2.5 11.050781 z M 3.5 14.050781 C 3.223 14.050781 3 14.273781 3 14.550781 C 3 14.827781 3.223 15.050781 3.5 15.050781 C 3.777 15.050781 4 14.827781 4 14.550781 C 4 14.273781 3.777 14.050781 3.5 14.050781 z M 6.5 16.050781 C 6.223 16.050781 6 16.273781 6 16.550781 C 6 16.827781 6.223 17.050781 6.5 17.050781 C 6.777 17.050781 7 16.827781 7 16.550781 C 7 16.273781 6.777 16.050781 6.5 16.050781 z "
     class="ColorScheme-Text"
     />
 <path 
     style="fill:currentColor;fill-opacity:1;stroke:none" 
     d="M 14 10 A 4 4 0 0 0 10 14 A 4 4 0 0 0 14 18 A 4 4 0 0 0 18 14 A 4 4 0 0 0 14 10 z M 14 11 A 3 3 0 0 1 17 14 A 3 3 0 0 1 14 17 A 3 3 0 0 1 11 14 A 3 3 0 0 1 14 11 z "
     class="ColorScheme-Highlight"
     />
</svg>

<svg xmlns="http://www.w3.org/2000/svg" viewBox="0 0 22 22">
<defs id="defs3051">
<style id="current-color-scheme" type="text/css">
.ColorScheme-Text{color:#dedede}.ColorScheme-Highlight{color:#3daee9}
</style>
</defs>
<path d="m9.6 3.05-.707.708 2.293 2.293H8v1h3.186L8.893 9.344l.707.707 3.293-3.293.207-.207-.207-.207zm-3.1 3a.499.499 0 1 0 0 1 .499.499 0 1 0 0-1m-3 2a.499.499 0 1 0 0 1 .499.499 0 1 0 0-1m-1 3a.499.499 0 1 0 0 1 .499.499 0 1 0 0-1m1 3a.499.499 0 1 0 0 1 .499.499 0 1 0 0-1m3 2a.499.499 0 1 0 0 1 .499.499 0 1 0 0-1" class="ColorScheme-Text" style="fill:currentColor;fill-opacity:1;stroke:none"/>
<path d="M14 10a4 4 0 0 0-4 4 4 4 0 0 0 4 4 4 4 0 0 0 4-4 4 4 0 0 0-4-4m0 1a3 3 0 0 1 3 3 3 3 0 0 1-3 3 3 3 0 0 1-3-3 3 3 0 0 1 3-3" class="ColorScheme-Highlight" style="fill:currentColor;fill-opacity:1;stroke:none"/>
</svg>
